X:5634
T:Rory O'More. JMT012
O:england
M:6/8
L:1/8
S:J.Moore,Tyneside,1841. (08)
R:Jig
A:Northumbria
N:Unusual setting
D:
H:
H:184
W:
K:G
g/e/|
(dG).G AG.G | (dG).G (Gg)e | (d>cB) (BA)G | FAA A2B |
(cd).e (de).f | .g.f.e d2c | (Bc).d (eg).^c | ddd ""d2 :|
g/e/|
(dG)G (AG)G | (dG)G G(ge) | (d>cB) (B>AG) | (FA)A A2 B/c/|
(dG)G AGG | dGG"HOLD"e2 d/c/ | (B>c)d. d.e.f.| (gG)G g3|
(g>fe) (eB).B | {d}c-BA G2A |(E>FA) GAB | (Be)d d2 e/f/|
(g>f)e (eB)B | cBA G2 F | (E>FG) (GA).B| (Bd)d "DC"d2||


